X: 143
T: 143. In dulci jubilo
N: Derived from chor143.krn
C: Johann Sebastian Bach
%%abc-version 2.0
%%abcx-abcm2ps-target-version 5.9.1 (29 Sep 2008)
%%abc-creator hum2abc beta
%%abcx-conversion-date 2019/03/11 17:28:18
%%abc-edited-by Craig Stuart Sapp
%%humdrum-veritas 3452579679
%%humdrum-veritas-data 1908542089
%%
%%barnumbers 0
L: 1/4
M: 3/4
%%staves [1 2 3 4]
V: 1 clef=treble
V: 2 clef=treble
V: 3 clef=treble-8
V: 4 clef=bass
K: F
[V:1] F [I:setbarnb 1]| 
[V:2] C | 
[V:3] A | 
[V:4] F, | 
[V:1] F2F | 
[V:2] D2D | 
[V:3] A2B | 
[V:4] D,C,B,, | 
[V:1] A2B | 
[V:2] E2E | 
[V:3] c2B | 
[V:4] A,,B,,/A,,/G,,/A,,/ | 
[V:1] c2d | 
[V:2] F3 | 
[V:3] A2B | 
[V:4] F,,/F,/_E,/D,/C,/B,,/ | 
[V:1] !fermata!c3 | 
[V:2] !fermata!F3 | 
[V:3] !fermata!A3 | 
[V:4] !fermata!F,3 | 
[V:1] F2F | 
[V:2] FED | 
[V:3] A2B | 
[V:4] D,C,B,, | 
[V:1] A2B | 
[V:2] C2D | 
[V:3] AGF | 
[V:4] F,E,D, | 
[V:1] c2d | 
[V:2] CEG | 
[V:3] Gc=B | 
[V:4] E,C,G,, | 
[V:1] !fermata!c3 | 
[V:2] !fermata!E3 | 
[V:3] !fermata!G3 | 
[V:4] !fermata!C,3 | 
[V:1] c2d | 
[V:2] F2F | 
[V:3] A2B | 
[V:4] F,2B,- | 
[V:1] c2B | 
[V:2] EFG | 
[V:3] cde | 
[V:4] B,A,G,- | 
[V:1] A3/B/ A/G/ | 
[V:2] ^CDE | 
[V:3] A=B^c | 
[V:4] G,F,E, | 
[V:1] !fermata!F2F | 
[V:2] !fermata!A,2F | 
[V:3] !fermata!d2=c | 
[V:4] !fermata!D,2A,, | 
[V:1] G2G | 
[V:2] FE/D/E | 
[V:3] dBc | 
[V:4] B,,G,,C, | 
[V:1] A2G | 
[V:2] F2E | 
[V:3] c2c | 
[V:4] F,,/G,,/A,,/B,,/C,/B,,/ | 
[V:1] F2G | 
[V:2] F3/G/F/E/ | 
[V:3] cAc | 
[V:4] A,,F,,C,, | 
[V:1] !fermata!A3 | 
[V:2] !fermata!F3 | 
[V:3] !fermata!c3 | 
[V:4] !fermata!F,,3 | 
[V:1] c2d | 
[V:2] F2F | 
[V:3] A2B | 
[V:4] F,E,D, | 
[V:1] c2B | 
[V:2] GFG | 
[V:3] G2e | 
[V:4] E,D,C, | 
[V:1] A3/B/A/G/ | 
[V:2] GFE | 
[V:3] ed^c | 
[V:4] F,/G,/A,A,, | 
[V:1] !fermata!F2F | 
[V:2] !fermata!D2F- | 
[V:3] !fermata!A2=c | 
[V:4] !fermata!D,2A,, | 
[V:1] G2G | 
[V:2] FE/D/E | 
[V:3] dBc | 
[V:4] B,,G,,C, | 
[V:1] A2G | 
[V:2] F2E- | 
[V:3] c2c | 
[V:4] F,,/G,,/A,,/B,,/C,/A,,/ | 
[V:1] F2G | 
[V:2] EA,D | 
[V:3] A2B | 
[V:4] D,C,B,, | 
[V:1] !fermata!A3 | 
[V:2] !fermata!^C3 | 
[V:3] !fermata!E3 | 
[V:4] !fermata!A,,3 | 
[V:1] D2D | 
[V:2] D2D- | 
[V:3] z/ F/G/A/B/A/ | 
[V:4] B,,A,,G,, | 
[V:1] E2E | 
[V:2] DC/D/E- | 
[V:3] GA/B/c/B/ | 
[V:4] C,B,,A,, | 
[V:1] F/E/F/G/A/B/ | 
[V:2] ED2 | 
[V:3] A3/G/F | 
[V:4] D,/C,/D,/E,/F,/D,/ | 
[V:1] !fermata!c3 | 
[V:2] !fermata!C3 | 
[V:3] !fermata!G3 | 
[V:4] !fermata!E,3 | 
[V:1] A2A | 
[V:2] CF/E/F | 
[V:3] ABc | 
[V:4] F,,G,,A,, | 
[V:1] G2G | 
[V:2] F2E | 
[V:3] dBc- | 
[V:4] B,,G,,C, | 
[V:1] F3- | 
[V:2] F/_E/D/C/D/B,/ | 
[V:3] cB/A/B/G/ | 
[V:4] A,,B,,2 | 
[V:1] !fermata!F3 |]  
[V:2] !fermata!C3 |]  
[V:3] !fermata!A3 |]  
[V:4] !fermata!F,,3 |]  



